packages/foundations/assets/icons/functional/images/transportation/airplane_32_inverted.svg

<svg width="32" height="32" viewBox="0 0 32 32" fill="none" xmlns="http://www.w3.org/2000/svg">
<g clip-path="url(#clip0_2214_6626)">
<path fill-rule="evenodd" clip-rule="evenodd" d="M27.7477 10.8384C26.7246 11.1703 25.7031 11.504 24.683 11.8396C24.0433 12.118 23.8839 12.6134 24.0433 13.1008C24.2027 13.5883 24.7573 13.9342 25.3046 13.7405C27.0937 13.1588 27.1325 13.1021 28.879 12.5715C29.3522 14.3657 28.3715 16.0728 26.6954 16.6009L21.2454 18.3159L17.0034 26.1039C16.8674 26.3539 16.6354 26.5369 16.3604 26.6109L15.7924 26.7649C15.1314 26.9429 14.4814 26.4459 14.4804 25.7619L14.4714 20.4469L10.2724 21.7639C8.00738 22.4319 6.06038 21.1249 5.42138 19.4399L3.05438 12.7289C2.88938 12.2609 3.12638 11.7479 3.58938 11.5689L4.29938 11.2939C4.83838 11.0859 5.44738 11.1799 5.89738 11.5419L8.79138 13.8619L20.9054 10.0569C23.1397 9.3423 26.0875 9.48702 27.7477 10.8384ZM10.9162 15.8445C10.1762 16.0825 9.77018 16.8755 10.0082 17.6155C10.2462 18.3555 11.0392 18.7615 11.7792 18.5235C12.5192 18.2845 12.9252 17.4925 12.6872 16.7525C12.4492 16.0125 11.6562 15.6065 10.9162 15.8445ZM15.2917 14.4353C14.5517 14.6733 14.1457 15.4663 14.3837 16.2053C14.6217 16.9463 15.4147 17.3523 16.1547 17.1143C16.8947 16.8753 17.3007 16.0823 17.0627 15.3433C16.8247 14.6033 16.0317 14.1973 15.2917 14.4353ZM19.6677 13.0262C18.9277 13.2642 18.5217 14.0572 18.7597 14.7962C18.9977 15.5372 19.7907 15.9432 20.5307 15.7052C21.2707 15.4662 21.6767 14.6732 21.4387 13.9342C21.2007 13.1942 20.4077 12.7882 19.6677 13.0262ZM12.3752 5.54064L16.1292 9.34564L11.8772 10.7906L9.91918 6.93964C9.64918 6.31364 9.99418 5.59464 10.6502 5.41164L11.2652 5.23964C11.6622 5.12964 12.0882 5.24464 12.3752 5.54064Z" fill="#1A1C1F"/>
</g>
<defs>
<clipPath id="clip0_2214_6626">
<rect width="32" height="32" fill="white"/>
</clipPath>
</defs>
</svg>

<svg xmlns="http://www.w3.org/2000/svg" width="32" height="32" fill="none"><g clip-path="url(#a)"><path fill="#1A1C1F" fill-rule="evenodd" d="M27.748 10.838q-1.535.498-3.065 1.002c-.64.278-.8.773-.64 1.26.16.488.714.834 1.262.64 1.789-.581 1.828-.638 3.574-1.168.473 1.794-.508 3.5-2.184 4.029l-5.45 1.715-4.242 7.788c-.136.25-.368.433-.643.507l-.568.154a1.04 1.04 0 0 1-1.312-1.003l-.009-5.315-4.199 1.317a3.934 3.934 0 0 1-4.85-2.324l-2.368-6.711a.916.916 0 0 1 .535-1.16l.71-.275a1.62 1.62 0 0 1 1.598.248l2.894 2.32 12.114-3.805c2.235-.715 5.182-.57 6.843.781m-16.832 5.007a1.407 1.407 0 1 0 .863 2.678 1.407 1.407 0 0 0-.863-2.678m4.376-1.41a1.406 1.406 0 1 0 .861 2.678 1.406 1.406 0 0 0-.861-2.678m4.376-1.409a1.406 1.406 0 1 0 .861 2.678 1.406 1.406 0 0 0-.861-2.678m-7.293-7.485 3.754 3.805-4.252 1.445L9.92 6.94a1.124 1.124 0 0 1 .731-1.528l.615-.172c.397-.11.823.005 1.11.3" clip-rule="evenodd"/></g><defs><clipPath id="a"><path fill="#fff" d="M0 0h32v32H0z"/></clipPath></defs></svg>
